img/react.svg

<svg width="110" height="126" viewBox="0 0 110 126" fill="none" xmlns="http://www.w3.org/2000/svg">
<path d="M55 55.506C60.55 55.506 65.0492 51.2809 65.0492 46.069C65.0492 40.8571 60.55 36.632 55 36.632C49.4501 36.632 44.9509 40.8571 44.9509 46.069C44.9509 51.2809 49.4501 55.506 55 55.506Z" fill="#61DAFB"/>
<path d="M55 80.773C62.888 87.9776 70.668 92.2395 76.9352 92.2395C78.9882 92.2395 80.9332 91.8336 82.554 90.9203C88.1729 87.8761 90.2259 80.2656 88.2809 69.4079C87.9568 67.4799 87.5246 65.5519 86.9843 63.5225C89.1454 62.9136 91.0904 62.3048 93.0354 61.6959C103.949 57.7385 110 52.2589 110 46.272C110 40.1835 103.949 34.704 93.0354 30.848C91.0904 30.1376 89.1454 29.5288 86.9843 29.0214C87.5246 26.992 87.9568 25.064 88.2809 23.136C90.1179 12.0754 88.0648 4.36336 82.446 1.31916C80.8251 0.405894 78.8802 0 76.8271 0C70.668 0 62.78 4.26189 54.8919 11.4665C47.112 4.26189 39.332 0 33.0648 0C31.0118 0 29.0668 0.405894 27.446 1.31916C21.8271 4.36336 19.7741 11.9739 21.7191 22.8316C22.0432 24.7596 22.4754 26.6875 23.0157 28.717C20.8546 29.3259 18.9096 29.9347 16.9646 30.5435C6.05108 34.501 0 39.9806 0 45.9675C0 52.0559 6.05108 57.5355 16.9646 61.3915C18.9096 62.1018 20.8546 62.7107 23.0157 63.218C22.4754 65.2475 22.0432 67.1755 21.7191 69.1035C19.8821 79.9612 21.9352 87.6732 27.446 90.6159C29.0668 91.5292 31.0118 91.9351 33.0648 91.9351C39.332 92.138 47.112 87.8761 55 80.773ZM48.9489 67.074C50.8939 67.1755 52.947 67.1755 55 67.1755C57.053 67.1755 59.1061 67.1755 61.0511 67.074C59.1061 69.5094 57.053 71.7418 55 73.8728C52.947 71.7418 50.8939 69.5094 48.9489 67.074ZM35.5501 56.6223C36.6306 58.3473 37.6031 59.9709 38.7917 61.5945C35.442 61.1886 32.3084 60.6812 29.2829 60.0724C30.2554 57.3326 31.336 54.4913 32.6326 51.65C33.4971 53.2736 34.4695 54.9987 35.5501 56.6223ZM29.2829 32.1671C32.3084 31.5583 35.442 31.0509 38.7917 30.645C37.7112 32.2686 36.6306 33.8922 35.5501 35.6172C34.4695 37.3423 33.4971 38.9659 32.6326 40.6909C31.2279 37.7482 30.1473 34.9069 29.2829 32.1671ZM35.2259 46.069C36.6306 43.3292 38.1434 40.5894 39.8723 37.8496C41.4931 35.2113 43.3301 32.573 45.167 29.9347C48.4086 29.7318 51.6503 29.6303 55 29.6303C58.4578 29.6303 61.6994 29.7318 64.833 29.9347C66.778 32.573 68.5069 35.2113 70.1277 37.8496C71.8566 40.5894 73.3694 43.3292 74.7741 46.069C73.3694 48.8088 71.8566 51.5486 70.1277 54.2884C68.5069 56.9267 66.6699 59.565 64.833 62.2033C61.5914 62.4062 58.3497 62.5077 55 62.5077C51.5422 62.5077 48.3006 62.4062 45.167 62.2033C43.222 59.565 41.4931 56.9267 39.8723 54.2884C38.1434 51.5486 36.6306 48.8088 35.2259 46.069ZM77.4754 40.5894L74.558 35.5157C73.4774 33.7907 72.5049 32.1671 71.3163 30.5435C74.666 30.9494 77.7996 31.4568 80.8251 32.0656C79.8527 34.9069 78.7721 37.7482 77.4754 40.5894ZM77.4754 51.5486C78.7721 54.3898 79.8527 57.2311 80.8251 59.9709C77.7996 60.5797 74.666 61.0871 71.3163 61.493C72.3969 59.8694 73.4774 58.2458 74.558 56.5208C75.5305 54.9987 76.503 53.2736 77.4754 51.5486ZM79.9607 86.7599C79.0963 87.2673 78.0157 87.4702 76.8271 87.4702C71.5324 87.4702 64.9411 83.4113 58.4578 77.3229C61.5914 74.1772 64.6169 70.6256 67.6424 66.6681C72.721 66.2622 77.5835 65.5519 82.1218 64.5372C82.6621 66.3637 82.9862 68.1902 83.3104 70.0168C84.8232 78.642 83.6346 84.8319 79.9607 86.7599ZM85.5796 33.2833C97.6817 36.5305 104.921 41.5027 104.921 46.069C104.921 50.0265 99.9509 53.9839 91.1984 57.1296C89.4695 57.7385 87.5246 58.3473 85.5796 58.8547C84.1749 54.6943 82.446 50.4324 80.2849 46.069C82.446 41.7056 84.2829 37.4438 85.5796 33.2833ZM76.9352 4.66778C78.1238 4.66778 79.0963 4.87073 80.0688 5.3781C83.6346 7.3061 84.9312 13.3945 83.4185 22.1212C83.0943 23.8463 82.6621 25.6728 82.2299 27.6008C77.6915 26.6875 72.8291 25.9772 67.7505 25.4699C64.833 21.5124 61.6994 17.9608 58.5658 14.8151C65.0491 8.8282 71.6405 4.66778 76.9352 4.66778ZM61.0511 25.064C59.1061 24.9625 57.053 24.9625 55 24.9625C52.947 24.9625 50.8939 24.9625 48.9489 25.064C50.8939 22.6286 52.947 20.3962 55 18.2652C57.053 20.3962 59.1061 22.7301 61.0511 25.064ZM30.0393 5.3781C30.9037 4.87073 31.9843 4.66778 33.1729 4.66778C38.4676 4.66778 45.0589 8.72673 51.5422 14.8151C48.4086 17.9608 45.3831 21.5124 42.3576 25.4699C37.279 25.8758 32.4165 26.5861 27.8782 27.6008C27.3379 25.7743 27.0138 23.9478 26.6896 22.1212C25.1768 13.496 26.3654 7.40757 30.0393 5.3781ZM24.4204 58.8547C12.3183 55.6075 5.07858 50.6353 5.07858 46.069C5.07858 42.1115 10.0491 38.1541 18.8016 35.0084C20.5305 34.3995 22.4754 33.7907 24.4204 33.2833C25.8251 37.4438 27.554 41.7056 29.7151 46.069C27.554 50.4324 25.7171 54.7957 24.4204 58.8547ZM26.6896 70.0168C27.0138 68.2917 27.446 66.4652 27.8782 64.5372C32.4165 65.4505 37.279 66.1608 42.3576 66.6681C45.275 70.6256 48.4086 74.1772 51.5422 77.3229C45.0589 83.3098 38.4676 87.4702 33.1729 87.4702C31.9843 87.4702 31.0118 87.2673 30.0393 86.7599C26.3654 84.8319 25.1768 78.642 26.6896 70.0168ZM22.1513 111.824C24.5285 109.084 24.6365 106.04 23.3399 102.996C22.0432 99.9515 19.3418 98.5308 15.9921 98.4294C11.9941 98.3279 7.88802 98.4294 3.88998 98.4294H3.13359V124.711H6.37525V114.767H11.4538C12.1022 114.767 12.6424 114.97 12.9666 115.477L19.4499 124.914C19.558 125.117 19.8821 125.421 20.0982 125.421H24.3124C21.7191 121.667 19.2338 118.115 16.6405 114.462C18.9096 114.158 20.8546 113.447 22.1513 111.824ZM6.37525 111.621V101.575H7.56385C10.0491 101.575 12.6424 101.474 15.1277 101.677C18.0452 101.778 20.0982 103.909 20.0982 106.649C20.0982 109.389 17.721 111.519 14.8035 111.621C12.2102 111.722 9.6169 111.621 6.37525 111.621ZM48.1925 112.94C46.4637 105.837 39.5481 104.01 34.2534 106.243C30.1473 107.968 28.3104 111.317 28.2024 115.477C28.0943 118.623 29.0668 121.464 31.6601 123.595C34.5776 126.03 38.1434 126.335 41.8173 125.726C43.8703 125.32 45.7073 124.407 47.112 122.986C46.5717 122.276 46.0314 121.565 45.4912 120.956C42.4656 123.392 39.1159 124.204 35.442 122.58C33.0648 121.464 31.8762 118.724 31.6601 116.695H48.4086V115.375C48.5167 114.462 48.4086 113.65 48.1925 112.94ZM31.8762 114.564C31.5521 111.519 34.7937 108.272 38.3595 108.272C42.4656 108.171 45.0589 110.505 45.167 114.564H31.8762ZM65.0491 105.735C63.4283 105.431 61.6994 105.33 60.0786 105.431C57.4853 105.634 55.2161 106.75 53.3792 108.577C53.9195 109.287 54.3517 109.997 55 110.809C55.2161 110.606 55.4322 110.403 55.6483 110.302C57.3772 108.78 59.4303 107.968 61.9155 108.171C63.8605 108.272 65.6974 108.881 66.2377 110.708C66.6699 112.128 66.5619 113.65 66.6699 115.173C66.3458 115.173 66.2377 115.071 66.1297 114.97C63.5363 112.94 60.6189 112.534 57.4853 113.245C54.5678 113.955 52.7308 116.086 52.5147 118.826C52.2986 121.971 53.8114 124.305 56.7289 125.421C58.5658 126.132 60.6189 126.132 62.5639 125.726C64.0766 125.421 64.725 124.61 66.8861 123.493V124.812H69.9116C69.9116 120.754 70.0196 115.781 69.9116 111.114C69.9116 108.171 68.0747 106.344 65.0491 105.735ZM66.5619 118.521C66.4538 118.826 66.5619 119.13 66.5619 119.434C66.5619 121.565 66.0216 122.276 63.8605 123.087C62.3477 123.595 60.7269 123.798 59.1061 123.29C57.2692 122.783 55.9725 121.261 55.9725 119.536C55.8644 117.811 57.053 116.086 58.89 115.578C61.3752 114.767 63.6444 115.274 65.6974 116.695C66.3458 117.202 66.778 117.709 66.5619 118.521ZM83.4185 108.475C86.2279 107.663 88.8212 108.171 90.7662 110.403L91.0904 110.606C91.8468 109.997 92.4951 109.389 93.3595 108.678C93.0354 108.374 92.9273 108.171 92.7112 107.866C89.5776 104.721 83.4185 104.315 79.6365 106.852C74.3418 110.505 74.4499 117.608 77.0432 121.362C79.5285 124.914 83.0943 126.132 87.3084 125.624C89.7937 125.32 91.8468 124.204 93.4676 122.276C92.7112 121.667 91.9548 121.058 91.1984 120.348C90.9823 120.551 90.8743 120.652 90.7662 120.855C87.8487 123.899 82.9862 123.595 80.3929 120.348C78.8802 118.42 78.556 116.187 78.9882 113.955C79.2043 111.418 80.609 109.389 83.4185 108.475ZM105.894 122.276C105.678 122.377 105.57 122.479 105.57 122.479C104.705 123.087 103.841 123.189 102.868 122.884C101.896 122.479 101.788 121.667 101.68 120.855V109.287C101.68 109.084 101.68 109.49 101.788 108.475H105.894V105.431H101.572V100.357H98.3301V105.837H95.5206C95.3045 105.837 94.9804 106.04 94.9804 106.243C94.8723 106.953 94.9804 107.461 94.9804 108.475H98.4381V121.464C98.4381 123.087 98.8703 124.508 100.383 125.32C102.004 126.233 105.138 126.03 106.542 124.914C106.758 124.812 106.866 124.407 106.866 124.305C106.542 123.696 106.218 122.986 105.894 122.276Z" fill="#61DAFB"/>
</svg>

<svg xmlns="http://www.w3.org/2000/svg" width="110" height="126" fill="none"><path fill="#61DAFB" d="M55 55.506c5.55 0 10.05-4.225 10.05-9.437s-4.5-9.437-10.05-9.437c-5.55 0-10.05 4.225-10.05 9.437s4.5 9.437 10.05 9.437Z"/><path fill="#61DAFB" d="M55 80.773c7.888 7.205 15.668 11.467 21.935 11.467 2.053 0 3.998-.406 5.619-1.32 5.619-3.044 7.672-10.654 5.727-21.512a63.96 63.96 0 0 0-1.297-5.886c2.161-.608 4.106-1.217 6.051-1.826C103.95 57.739 110 52.259 110 46.272c0-6.088-6.051-11.568-16.965-15.424a51.894 51.894 0 0 0-6.05-1.827 63.96 63.96 0 0 0 1.296-5.885c1.837-11.06-.216-18.773-5.835-21.817C80.826.406 78.88 0 76.827 0 70.668 0 62.78 4.262 54.892 11.466 47.112 4.263 39.332 0 33.065 0c-2.053 0-3.998.406-5.619 1.32-5.619 3.043-7.672 10.654-5.727 21.512a63.968 63.968 0 0 0 1.297 5.885c-2.161.609-4.106 1.218-6.051 1.827C6.05 34.5 0 39.98 0 45.968c0 6.088 6.051 11.567 16.965 15.423 1.945.71 3.89 1.32 6.05 1.827a63.97 63.97 0 0 0-1.296 5.885c-1.837 10.858.216 18.57 5.727 21.513 1.62.913 3.566 1.32 5.619 1.32 6.267.202 14.047-4.06 21.935-11.163Zm-6.051-13.699c1.945.102 3.998.102 6.051.102s4.106 0 6.051-.102c-1.945 2.435-3.998 4.668-6.051 6.799-2.053-2.131-4.106-4.364-6.051-6.799ZM35.55 56.622c1.08 1.725 2.053 3.349 3.242 4.972-3.35-.405-6.484-.913-9.51-1.522.973-2.74 2.054-5.58 3.35-8.422.865 1.624 1.837 3.349 2.918 4.972Zm-6.267-24.455c3.025-.609 6.159-1.116 9.509-1.522-1.08 1.624-2.161 3.247-3.242 4.972-1.08 1.725-2.053 3.349-2.917 5.074a65.24 65.24 0 0 1-3.35-8.524Zm5.943 13.902c1.405-2.74 2.917-5.48 4.646-8.22 1.621-2.638 3.458-5.276 5.295-7.914A156.52 156.52 0 0 1 55 29.63c3.458 0 6.7.102 9.833.305 1.945 2.638 3.674 5.276 5.295 7.915 1.729 2.74 3.241 5.48 4.646 8.219-1.405 2.74-2.917 5.48-4.646 8.22-1.621 2.638-3.458 5.276-5.295 7.914a156.52 156.52 0 0 1-9.833.305c-3.458 0-6.7-.102-9.833-.305-1.945-2.638-3.674-5.276-5.295-7.915-1.729-2.74-3.241-5.48-4.646-8.219Zm42.25-5.48-2.918-5.073c-1.08-1.725-2.053-3.349-3.242-4.972 3.35.405 6.484.913 9.51 1.522-.973 2.84-2.054 5.682-3.35 8.523Zm0 10.96c1.296 2.84 2.377 5.682 3.35 8.422-3.026.609-6.16 1.116-9.51 1.522a212.048 212.048 0 0 0 3.242-4.972c.972-1.522 1.945-3.247 2.917-4.972Zm2.485 35.21c-.865.508-1.945.711-3.134.711-5.295 0-11.886-4.059-18.37-10.147 3.134-3.146 6.16-6.697 9.185-10.655 5.079-.406 9.942-1.116 14.48-2.13.54 1.826.864 3.652 1.188 5.479 1.513 8.625.325 14.815-3.35 16.743Zm5.619-53.476c12.102 3.248 19.341 8.22 19.341 12.786 0 3.957-4.97 7.915-13.723 11.06a71.762 71.762 0 0 1-5.618 1.726 102.814 102.814 0 0 0-5.295-12.786c2.161-4.363 3.998-8.625 5.295-12.786ZM76.935 4.668c1.189 0 2.161.203 3.134.71 3.566 1.928 4.862 8.017 3.35 16.743-.325 1.725-.757 3.552-1.19 5.48-4.537-.913-9.4-1.624-14.478-2.131-2.918-3.958-6.052-7.51-9.185-10.655C65.049 8.828 71.64 4.668 76.936 4.668ZM61.051 25.064c-1.945-.102-3.998-.102-6.051-.102s-4.106 0-6.051.102c1.945-2.435 3.998-4.668 6.051-6.799 2.053 2.131 4.106 4.465 6.051 6.799ZM30.04 5.378c.865-.507 1.945-.71 3.134-.71 5.295 0 11.886 4.059 18.37 10.147-3.134 3.146-6.16 6.697-9.185 10.655-5.079.406-9.941 1.116-14.48 2.13-.54-1.826-.864-3.652-1.188-5.479-1.513-8.625-.325-14.713 3.35-16.743ZM24.42 58.855C12.318 55.608 5.08 50.635 5.08 46.069c0-3.958 4.97-7.915 13.723-11.06a71.762 71.762 0 0 1 5.618-1.726 102.807 102.807 0 0 0 5.295 12.786c-2.161 4.363-3.998 8.727-5.295 12.786Zm2.27 11.162c.324-1.725.756-3.552 1.188-5.48 4.538.913 9.401 1.624 14.48 2.131 2.917 3.958 6.05 7.51 9.184 10.655C45.06 83.31 38.468 87.47 33.172 87.47c-1.188 0-2.16-.203-3.133-.71-3.674-1.928-4.862-8.118-3.35-16.743Zm-4.539 41.807c2.378-2.74 2.486-5.784 1.189-8.828-1.297-3.044-3.998-4.465-7.348-4.567-3.998-.101-8.104 0-12.102 0h-.756v26.282h3.241v-9.944h5.079c.648 0 1.188.203 1.513.71l6.483 9.437c.108.203.432.507.648.507h4.214a1029.853 1029.853 0 0 0-7.672-10.959c2.27-.304 4.215-1.015 5.511-2.638Zm-15.776-.203v-10.046h1.189c2.485 0 5.078-.101 7.564.102 2.917.101 4.97 2.232 4.97 4.972s-2.377 4.87-5.294 4.972c-2.594.101-5.187 0-8.429 0Zm41.818 1.319c-1.73-7.103-8.645-8.93-13.94-6.697-4.106 1.725-5.943 5.074-6.05 9.234-.109 3.146.864 5.987 3.457 8.118 2.918 2.435 6.483 2.74 10.157 2.131 2.053-.406 3.89-1.319 5.295-2.74-.54-.71-1.08-1.421-1.62-2.03-3.026 2.436-6.376 3.248-10.05 1.624-2.377-1.116-3.566-3.856-3.782-5.885H48.41v-1.32c.108-.913 0-1.725-.216-2.435Zm-16.317 1.624c-.324-3.045 2.918-6.292 6.483-6.292 4.107-.101 6.7 2.233 6.808 6.292h-13.29Zm33.173-8.829c-1.62-.304-3.35-.405-4.97-.304-2.594.203-4.863 1.319-6.7 3.146.54.71.973 1.42 1.621 2.232.216-.203.432-.406.648-.507 1.73-1.522 3.782-2.334 6.267-2.131 1.946.101 3.782.71 4.323 2.537.432 1.42.324 2.942.432 4.465-.324 0-.432-.102-.54-.203-2.594-2.03-5.511-2.436-8.645-1.725-2.917.71-4.754 2.841-4.97 5.581-.216 3.145 1.296 5.479 4.214 6.595 1.837.711 3.89.711 5.835.305 1.513-.305 2.161-1.116 4.322-2.233v1.319h3.026c0-4.058.108-9.031 0-13.698 0-2.943-1.837-4.77-4.863-5.379Zm1.513 12.786c-.108.305 0 .609 0 .913 0 2.131-.54 2.842-2.701 3.653-1.513.508-3.134.711-4.755.203-1.837-.507-3.134-2.029-3.134-3.754-.108-1.725 1.081-3.45 2.918-3.958 2.485-.811 4.754-.304 6.807 1.117.649.507 1.081 1.014.865 1.826Zm16.856-10.046c2.81-.812 5.403-.304 7.348 1.928l.324.203c.757-.609 1.405-1.217 2.27-1.928-.325-.304-.433-.507-.649-.812-3.133-3.145-9.293-3.551-13.075-1.014-5.294 3.653-5.186 10.756-2.593 14.51 2.485 3.552 6.051 4.77 10.265 4.262 2.486-.304 4.539-1.42 6.16-3.348-.757-.609-1.513-1.218-2.27-1.928-.216.203-.324.304-.432.507-2.917 3.044-7.78 2.74-10.373-.507-1.513-1.928-1.837-4.161-1.405-6.393.216-2.537 1.621-4.566 4.43-5.48Zm22.476 13.801c-.216.101-.324.203-.324.203-.865.608-1.729.71-2.702.405-.972-.405-1.08-1.217-1.188-2.029v-11.568c0-.203 0 .203.108-.812h4.106v-3.044h-4.322v-5.074H98.33v5.48h-2.81c-.215 0-.54.203-.54.406-.108.71 0 1.218 0 2.232h3.458v12.989c0 1.623.432 3.044 1.945 3.856 1.621.913 4.755.71 6.159-.406.216-.102.324-.507.324-.609a38.638 38.638 0 0 1-.972-2.029Z"/></svg>
